X:480
T: "Liebeslied der Wandernden"
N: Z1160
O: Europa, Mitteleuropa, Deutschland, Lothringen
R: Liebes - Lied, Abschieds - Lied
M: 4/4
L: 1/8
K: G
D2 | G3AB2c2 | d4z2
GB | d2d2c2c2 | B4z2
G2 | B2d2d2e2 | d2c2c2
d2 | B2B2B2d2 | B2AGA2
GA | B6ce | d6
GB | d2d2c2c2 | B4z2

@@@ Tune index: 10238
